app/dist/common/images/acm-research 2.svg

<svg height="18" width="18" xmlns="http://www.w3.org/2000/svg"><path d="m0 0h18v18h-18z" fill="#0079c0"/><path d="m2 12 .92-6h2.17l.91 6h-1.12l-.25-1.5h-1.25l-.24 1.5zm1.54-2.62.46-2.44.48 2.44zm6.12-2.48v1.35h-1v-.89a.22.22 0 0 0 -.21-.23h-.56c-.17 0-.23.15-.23.23v3.23c0 .23.15.28.23.29h.57c.13-.01.2-.14.2-.3v-.83h1v1.16c0 .85-.7 1.09-1.02 1.09h-.93a1.03 1.03 0 0 1 -1.05-1.01v-4.02c.08-.77.75-.97 1.05-.97h.88c.84 0 1.09.61 1.07.9zm.84 5.1v-6h2.12l.64 4.68.66-4.68h2.08v6h-1v-5.04l-1.02 5.04h-1.48l-1-5.04v5.04z" fill="#fff" fill-rule="evenodd"/></svg>

<!-- by TradingView --><svg xmlns="http://www.w3.org/2000/svg" width="18" height="18"><path fill="#0079C0" d="M0 0h18v18H0z"/><path fill-rule="evenodd" d="M2 12l.92-6h2.17L6 12H4.88l-.25-1.5H3.38L3.14 12H2zm1.54-2.62L4 6.94l.48 2.44h-.94zM9.66 6.9v1.35h-1v-.89a.22.22 0 00-.21-.23h-.56c-.17 0-.23.15-.23.23v3.23c0 .23.15.28.23.29h.57c.13-.01.2-.14.2-.3v-.83h1v1.16c0 .85-.7 1.09-1.02 1.09h-.93a1.03 1.03 0 01-1.05-1.01V6.97C6.74 6.2 7.41 6 7.71 6h.88c.84 0 1.09.61 1.07.9zm.84 5.1V6h2.12l.64 4.68.66-4.68H16v6h-1V6.96L13.98 12H12.5l-1-5.04V12h-1z" fill="#fff"/></svg>
